packages/components/icon/src/assets/icons/close-clear.svg

<?xml version="1.0" encoding="UTF-8"?>
<svg width="24px" height="24px" viewBox="0 0 24 24" version="1.1" xmlns="http://www.w3.org/2000/svg" xmlns:xlink="http://www.w3.org/1999/xlink">
    <g id="icon/close-clear" stroke="none" stroke-width="1" fill="none" fill-rule="evenodd">
        <rect id="placeholder" x="0" y="0" width="24" height="24"></rect>
        <path d="M11.9984707,10.5842571 L16.2898345,6.29289322 C16.6803588,5.90236893 17.3135238,5.90236893 17.7040481,6.29289322 C18.0945724,6.68341751 18.0945724,7.31658249 17.7040481,7.70710678 L13.4126842,11.9984707 L17.7040481,16.2898345 C18.0945724,16.6803588 18.0945724,17.3135238 17.7040481,17.7040481 C17.3135238,18.0945724 16.6803588,18.0945724 16.2898345,17.7040481 L11.9984707,13.4126842 L7.70710678,17.7040481 C7.31658249,18.0945724 6.68341751,18.0945724 6.29289322,17.7040481 C5.90236893,17.3135238 5.90236893,16.6803588 6.29289322,16.2898345 L10.5842571,11.9984707 L6.29289322,7.70710678 C5.90236893,7.31658249 5.90236893,6.68341751 6.29289322,6.29289322 C6.68341751,5.90236893 7.31658249,5.90236893 7.70710678,6.29289322 L11.9984707,10.5842571 Z" id="icon" fill="currentColor"></path>
    </g>
</svg>

<svg viewBox="0 0 24 24" xmlns="http://www.w3.org/2000/svg"><g fill="none" fill-rule="evenodd"><path d="M0 0h24v24H0z"/><path d="m11.998 10.584 4.292-4.291a1 1 0 0 1 1.414 1.414l-4.291 4.291 4.291 4.292a1 1 0 0 1-1.414 1.414l-4.292-4.291-4.29 4.291a1 1 0 1 1-1.415-1.414l4.291-4.292-4.291-4.29a1 1 0 0 1 1.414-1.415l4.291 4.291Z" fill="currentColor"/></g></svg>
